X:1
T:Saranda volde e plio
T:Canzona saranda volde e plio
T:Canzona Saranda volde e plio 
T:from: Il Primo Libro delle Greghesche, Venetia, 1564 Arrangement for Recorder Quartet based on the Typeset by Allen Garvin 
T:Andrea Gabrieli (1533-1585) arr. Felix Scharpf 
T:San Marco, Venetia / Foto by Roman Bonnefoy The spacious, resonat interior was one of the inspirations of the music of the Venetian School. 
T:twoflutes 2020 / Felix Scharpf / https://commons.wikimedia.org/wiki/File:San_Alipio_facade_door_of_Saint_Mark%27s_Basilica_of_Venice.jpg Roman Bonnefoy
T:twoflutes 2020 / Felix Scharpf / https://commons.wikimedia.org/wiki/File:San_Alipio_facade_door_of_Saint_Mark%27s_Basilica_of_Venice.jpg Roman Bonnefoy
T:twoflutes 2020 / Felix Scharpf / https://commons.wikimedia.org/wiki/File:San_Alipio_facade_door_of_Saint_Mark%27s_Basilica_of_Venice.jpg Roman Bonnefoy
T:twoflutes 2020 / Felix Scharpf / https://commons.wikimedia.org/wiki/File:San_Alipio_facade_door_of_Saint_Mark%27s_Basilica_of_Venice.jpg Roman Bonnefoy
T:twoflutes 2020 / Felix Scharpf / https://commons.wikimedia.org/wiki/File:San_Alipio_facade_door_of_Saint_Mark%27s_Basilica_of_Venice.jpg Roman Bonnefoy
T:twoflutes 2020 / Felix Scharpf / https://commons.wikimedia.org/wiki/File:San_Alipio_facade_door_of_Saint_Mark%27s_Basilica_of_Venice.jpg Roman Bonnefoy
C:Andrea Gabrieli (1533-1585)
Z:twoflutes 2020 / Felix Scharpf / https://commons.wikimedia.org/wiki/File:San_Alipio_facade_door_of_Saint_Mark%27s_Basilica_of_Venice.jpg Roman Bonnefoy
%%score [ 1 2 3 4 ]
L:1/8
Q:1/2=160
M:4/2
K:F
V:1 treble nm="Altblockflöte" snm="A.bfl."
V:2 treble nm="Tenorblockflöte" snm="T.bfl."
V:3 bass+8 nm="Bassblockflöte" snm="B.bfl."
V:4 bass+8 nm="Großbassblockflöte" snm="Gbbfl."
V:1
 z16 | z16 | c'4 (a2 b2 c'4) c'4 | z4 c'4 (a2 b2 c'4- | c'4) c'4 z8 | f4 (f2 g2 a2 b2 c'2 b2 | %6
 a2 g2 f8) e4 | g4 g2 g2 a4 g4 | e4 e4 g4 g2 g2 | a4 g4 e4 e4 | z16 | (g2 f2 e2 f2 g4) g4 | %12
 g8 g4 g4 | e4 g4 (g2 a2) b4 | a8 z8 |[M:3/2][Q:3/4=160]"^più mosso" z8 f4 | f8 g4 | a8 b4 | a12 | %19
 a12 | g6 .g2 g4 | g8 g4 | g12 | g8 f4 | f8 g4 | a8 b4 | a12 | a12 | g6 .g2 g4 | g8 g4 | %30
[M:4/2][Q:1/2=160]"^tempo primo" g8 g8 | z4 (c2 d2 e2 f2 g4) | g4 f4 f4 e4 | %33
 (d2 c2 d2 e2 f2 g2 f2 e2 | d8) ^c4 c4- | c4 d8 e4 | g8 f8 | _e8 d8 | z4 d4 d8 | %39
 d4 d4 e2 (de) f4- | f4 e4 f8 | z4 c'4 .c'2 c'2 .c'2 c'2 | c'8 a4 c'4 | .c'2 c'2 .c'2 c'2 c'8 | %44
 a8 z8 | z4 a4 (a2 g2) .a4 | z8 a4 (g2 f2) | e4 f4 f4 g4 | a4 b8 a4- | a4 g4 a8 | a8 z8 | %51
 f4 g2 g2 a2 a2 b4- | b2 b2 a2 a2 g4 f4 | z4 c'4 .c'2 c'2 .c'2 c'2 | c'8 a4 c'4 | %55
 .c'2 c'2 .c'2 c'2 c'8 | a8 z8 | z4 a4 (a2 g2) .a4 | z8 a4 (g2 f2) | e4 f4 f4 g4 | a4 b8 a4- | %61
 a4 g4 a8 | a8 z8 | f4 g2 g2 a2 a2 b4- | b2 b2 a2 a2 g4 f4 | z4 f4 a2 a2 c'2 c'2 | %66
 b4 g4 (b2 a2) a4 | g4 g4 e2 e2 f2 f2 | f4 e4 f8 |[Q:1/2=120] f4[Q:1/2=100] f4[Q:1/2=80] (c'8 | %70
 !fermata!a16) |] %71
V:2
 z8 c4 (A2 B2 | c4) c4 z4 f4 | a2 g2 f8 f4 | z8 z4 c4 | (A2 B2 c8) c4 | z4 f4 (f2 g2 a2 b2 | %6
 c'8) c8 | e4 e2 e2 f4 d4 | c4 c4 e4 e2 e2 | f4 d4 c4 c4 | z4 (c2 B2 A2 B2 c4- | c4) c4 e8 | %12
 d4 d4 e8 | z4 e4 (d2 f2) e4 | f4 c4 (d2 e2) f4 |[M:3/2] e8 c4 | d8 e4 | f8 f4 | f12 | f12 | %20
 e6 .e2 e4 | d8 d4 | e12 | e8 c4 | d8 e4 | f8 f4 | f12 | f12 | e6 .e2 e4 | d8 d4 | %30
[M:4/2] e8 e4 (c2 d2 | e2 f2 g4) c4- c4 | c4 A4 d4 c4 | (A2 G2 A2 c2 B2 G2 A4- | %34
 A4) (G2 F2) G4 A4 | A4 A6 B2 c4 | d4 _e8 d4 | c6 B2 A8 | G16 | z4 G4 G4 A4 | c12 (B2 A2) | %41
 A8 f4 .f2 f2 | .e2 e2 e4 f4 f4 | .f2 f2 .f2 f2 .e3 .d e4 | f8 z8 | z4 f4 (e2 d2) .e4 | %46
 z4 z2 d2 (d2 c2) d4 | z4 A4 A4 c4 | c4 f4 f8 | d8 z4 c4 | c2 c2 f2 f2 e4 c4 | %51
 d4 .d2 g4 ^f2 g2 d2 | d4 .c2 =f4 e2 f4 | z8 f4 f2 f2 | e2 e2 e4 f4 f4 | .f2 f2 .f2 f2 .e3 .d e4 | %56
 f8 z8 | z4 f4 (e2 d2) .e4 | z4 z2 d2 (d2 c2) d4 | z4 A4 A4 c4 | c4 f4 f8 | d8 z4 c4 | %62
 c2 c2 f2 f2 e4 c4 | d4 .d2 g4 ^f2 g2 d2- | d2 d2 .c2 =f4 e2 d2 f2 | e2 e2 d4 c4 c4 | %66
 d2 d2 e2 e2 f4- f2 f2 | e2 e2 d4 c4 A4 | A2 A2 c2 c2 c4 d4 | d4 .c2 f4 (ed Pe4 | !fermata!f16) |] %71
V:3
 z16 | A,4 (F,2 G,2 A,4) A,4 | z4 A,4 (G,2 A,2 B,4- | B,4) A,4 C4 A,2 B,2 | C4 C4 z4 F,4 | %5
 (F,2 G,2 A,2 B,2 C2 B,2 A,2 G,2 | A,8) G,8 | C4 C2 C2 C4 B,4 | G,4 G,4 C4 C2 C2 | C4 B,4 G,4 G,4 | %10
 z8 z4 (G,2 F,2 | E,2 F,2 G,8) C4 | =B,8 C4 C4 | G,4 C4 (_B,2 A,2) G,4 | F,4 A,4 (A,2 C2) =B,4 | %15
[M:3/2] C8 A,4 | A,8 C4 | C8 D4 | C12 | C12 | C6 .C2 C4 | =B,8 B,4 | C12 | C8 A,4 | A,8 C4 | %25
 C8 D4 | C12 | C12 | C6 .C2 C4 | =B,8 B,4 |[M:4/2] C4 C4 (C,2 D,2 E,2 F,2 | G,4) C,6 D,2 E,4- | %32
 E,4 F,4 D,4 G,4 | (F,2 E,2 D,2 C,2 D,2 E,2 F,4- | F,2) E,2 D,4 E,4 E,4- | E,4 F,8 G,4 | %36
 B,8 B,4 B,4- | B,2 A,2 G,8 ^F,4 | z4 G,4 =B,8 | =B,4 B,4 C6 (_B,A,) | G,8 A,4 C4 | %41
 .C2 C2 .C2 C2 A,8 | G,4 C4 .C2 C2 .C2 C2 | A,8 G,8 | z4 A,4 (A,2 G,2) .A,4 | z4 D4 (C2 B,2) .A,4 | %46
 D4 (C2 B,2) A,4- A,4 | C8 D4 E4 | F4 D4 C8 | B,8 A,8 | z4 F,4 G,2 G,2 A,2 A,2 | %51
 B,6 B,2 A,2 A,2 G,4 | F,8 z4 C4 | .C2 C2 .C2 C2 A,8 | G,4 C4 .C2 C2 .C2 C2 | A,8 G,8 | %56
 z4 A,4 (A,2 G,2) .A,4 | z4 D4 (C2 B,2) .A,4 | D4 (C2 B,2) A,8 | C8 D4 E4 | F4 D4 C8 | B,8 A,8 | %62
 z4 F,4 G,2 G,2 A,2 A,2 | B,6 B,2 A,2 A,2 G,4 | F,4 F,4 G,2 G,2 B,2 A,2 | C4 F,2 F,4 E,2 E,4 | %66
 D,4 z4 D4 C4 | .C2 C4 =B,2 C8 | F,4 G,2 G,2 A,2 A,2 _B,4- | B,2 B,2 A,2 A,2 (G,8 | %70
 !fermata!F,16) |] %71
V:4
 F,4 (D,2 E,2 F,4) F,4 | z8 F,4 (D,2 E,2 | F,4) F,4 z4 F,4 | (D,2 E,2 F,8) F,4 | %4
 z4 F,4 (F,2 G,2 A,2 B,2 | C2 B,2 A,2 G,2 F,8- | F,8) C,8 | C,4 C,2 C,2 F,4 G,4 | %8
 C,4 C,4 C,4 C,2 C,2 | F,4 G,4 C,4 C,4 | (C,2 B,,2 A,,2 B,,2 C,4) C,4 | C,16 | G,4 G,4 C,8- | %13
 C,8 z8 | z4 F,4 (F,2 E,2) D,4 |[M:3/2] C,8 F,4 | D,8 C,4 | F,8 B,,4 | F,12 | F,12 | C,6 .C,2 C,4 | %21
 G,,8 G,,4 | C,12 | C,8 F,4 | D,8 C,4 | F,8 B,,4 | F,12 | F,12 | C,6 .C,2 C,4 | G,,8 G,,4 | %30
[M:4/2] C,12 C,4 | (C,2 D,2 E,2 F,2 G,4) C,4- | C,4 D,4 B,,4 C,4 | %33
 (D,2 E,2 F,2 G,2 F,2 E,2 D,2 C,2 | B,,8) A,,4 A,,4- | A,,4 D,8 C,4 | B,,12- B,,4 | C,8 D,8 | %38
 G,,8 z4 G,,4 | G,,4 G,,4 C,8 | C,8 F,,8 | F,4 .F,2 F,2 .F,2 F,2 F,4 | C,8 F,4 .F,2 F,2 | %43
 .F,2 F,2 F,4 C,8 | z4 D,4 (C,2 B,,2) .A,,4 | z16 | z4 G,4 (F,2 E,2) D,4 | z4 F,4 D,4 C,4 | %48
 F,4 B,,4 (F,6 E,F, | G,8) F,8 | F,4 D,2 D,2 C,2 C,2 F,4 | B,,4 G,,2 G,,2 D,4 G,,4 | %52
 B,,4 F,,2 F,,2 C,4 F,,4 | F,4 .F,2 F,2 .F,2 F,2 F,4 | C,8 F,4 .F,2 F,2 | .F,2 F,2 F,4 C,8 | %56
 z4 D,4 (C,2 B,,2) .A,,4 | z16 | z4 G,4 (F,2 E,2) D,4 | z4 F,4 D,4 C,4 | F,4 B,,4 (F,6 E,F, | %61
 G,8) F,8 | F,4 D,2 D,2 C,2 C,2 F,4 | B,,4 G,,2 G,,2 D,4 G,,2 G,,2 | B,,2 B,,2 F,,4 C,4 D,4 | %65
 C,2 C,2 B,,2 B,,2 A,,6 A,,2 | B,,2 B,,2 C,4 D,4 F,4 | C,2 C,2 G,4 C,4 F,4 | %68
 D,2 D,2 C,2 C,2 F,,4 B,,4 | B,,4 F,4 (C,8 | !fermata!F,16) |] %71

